icons/gitkraken-light.svg

<svg width="256" height="256" viewBox="0 0 256 256" fill="none" xmlns="http://www.w3.org/2000/svg">
<rect width="256" height="256" rx="60" fill="#F4F2ED"/>
<path d="M232.795 74.3319C231.868 71.9222 229.088 70.8101 226.863 71.7369C225.195 72.4783 224.083 74.1465 224.083 75.8147C224.083 76.3708 224.083 76.9269 224.454 77.2976C228.717 88.6044 231.127 100.838 231.127 113.813C231.127 166.269 192.016 209.828 141.228 216.316V167.937C144.379 167.381 147.345 166.455 150.311 165.528V206.121C191.646 196.112 222.6 158.67 222.6 113.813C222.6 78.039 202.767 46.7136 173.481 30.5875C171.256 29.29 168.476 30.2168 167.364 32.6265C166.993 33.1825 166.993 33.924 166.993 34.6654C166.993 36.3336 167.92 37.8165 169.217 38.5579C195.723 53.2011 213.703 81.5608 213.703 113.998C213.703 150.514 191.09 181.654 159.023 194.258V158.299C164.583 156.631 168.661 151.441 168.661 145.138C168.661 139.948 166.066 135.685 161.803 133.276C164.954 102.135 179.227 110.477 179.227 100.467V94.7212C179.227 79.8926 144.936 31.5143 128.809 30.4022H125.844C109.718 31.5143 75.4265 79.8926 75.4265 94.7212V100.467C75.4265 110.291 89.5137 102.135 92.8501 133.276C88.7722 135.685 86.1772 140.134 86.1772 145.138C86.1772 151.255 90.2551 156.445 95.8158 158.299V194.258C63.9344 181.654 41.1354 150.514 41.1354 113.998C41.1354 81.5608 59.1151 53.2011 85.6212 38.5579C87.6601 37.4458 88.5869 34.8508 87.4747 32.6265C86.9187 30.9583 85.2505 30.0315 83.5822 30.0315C82.8408 30.0315 82.0994 30.2168 81.3579 30.5875C52.0715 46.7136 32.2382 78.039 32.2382 113.813C32.2382 158.67 63.1929 196.112 104.898 206.306V165.713C107.864 166.64 110.83 167.567 113.981 168.123V216.501C63.1929 209.828 24.0825 166.455 24.0825 113.813C24.0825 101.023 26.4922 88.7898 30.7554 77.2976C31.6822 75.0733 30.57 72.4783 28.3457 71.5515C27.7897 71.3662 27.2336 71.1808 26.6775 71.1808C24.8239 71.1808 23.1557 72.293 22.4143 74.1465C17.595 86.5655 15 99.9112 15 113.813C15 174.425 62.8222 223.73 122.878 226.14V169.235C124.546 169.42 127.512 169.42 127.512 169.42C127.512 169.42 130.478 169.42 132.146 169.235V226.14C192.202 223.73 240.024 174.425 240.024 113.813C239.839 99.9112 237.429 86.5655 232.795 74.3319ZM148.272 138.466C149.94 136.797 152.164 135.685 154.759 135.685C157.354 135.685 159.579 136.797 161.247 138.466C162.915 140.134 164.027 142.358 164.027 144.953C164.027 147.548 162.915 149.772 161.247 151.441C159.579 153.109 157.354 154.221 154.759 154.221C152.164 154.221 149.94 153.109 148.272 151.441C146.604 149.772 145.492 147.548 145.492 144.953C145.492 142.358 146.604 140.134 148.272 138.466ZM106.752 151.441C105.084 153.109 102.859 154.221 100.264 154.221C97.6694 154.221 95.4451 153.109 93.7769 151.441C91.9233 149.772 90.9965 147.548 90.9965 144.953C90.9965 142.358 92.1087 140.134 93.7769 138.466C95.4451 136.797 97.6694 135.685 100.264 135.685C102.859 135.685 105.084 136.797 106.752 138.466C108.42 140.134 109.532 142.358 109.532 144.953C109.347 147.548 108.42 149.772 106.752 151.441Z" fill="#128379"/>
</svg>

<svg xmlns="http://www.w3.org/2000/svg" width="256" height="256" fill="none"><rect width="256" height="256" fill="#F4F2ED" rx="60"/><path fill="#128379" d="M232.795 74.332c-.927-2.41-3.707-3.522-5.932-2.595-1.668.741-2.78 2.41-2.78 4.078 0 .556 0 1.112.371 1.483 4.263 11.306 6.673 23.54 6.673 36.515 0 52.456-39.111 96.015-89.899 102.503v-48.379c3.151-.556 6.117-1.482 9.083-2.409v40.593c41.335-10.009 72.289-47.451 72.289-92.308 0-35.774-19.833-67.1-49.119-83.226-2.225-1.297-5.005-.37-6.117 2.04-.371.555-.371 1.297-.371 2.038 0 1.669.927 3.151 2.224 3.893 26.506 14.643 44.486 43.003 44.486 75.44 0 36.516-22.613 67.656-54.68 80.26v-35.959c5.56-1.668 9.638-6.858 9.638-13.161 0-5.19-2.595-9.453-6.858-11.862 3.151-31.141 17.424-22.799 17.424-32.809v-5.746c0-14.828-34.291-63.207-50.418-64.319h-2.965c-16.126 1.112-50.417 49.49-50.417 64.32v5.745c0 9.824 14.087 1.668 17.423 32.809-4.078 2.409-6.673 6.858-6.673 11.862 0 6.117 4.078 11.307 9.639 13.161v35.959c-31.882-12.604-54.68-43.744-54.68-80.26 0-32.437 17.98-60.797 44.485-75.44 2.04-1.112 2.966-3.707 1.854-5.931-.556-1.669-2.224-2.596-3.893-2.596q-1.112 0-2.224.556c-29.287 16.127-49.12 47.452-49.12 83.226 0 44.857 30.955 82.299 72.66 92.493v-40.593c2.966.927 5.932 1.854 9.083 2.41v48.378c-50.788-6.673-89.898-50.046-89.898-102.688 0-12.79 2.41-25.023 6.672-36.515.927-2.225-.185-4.82-2.41-5.746-.555-.186-1.111-.371-1.668-.371-1.853 0-3.521 1.112-4.263 2.966A109.3 109.3 0 0 0 15 113.813c0 60.612 47.822 109.917 107.878 112.327v-56.905c1.668.185 4.634.185 4.634.185s2.966 0 4.634-.185v56.905c60.056-2.41 107.878-51.715 107.878-112.327-.185-13.902-2.595-27.248-7.229-39.481m-84.523 64.134c1.668-1.669 3.892-2.781 6.487-2.781s4.82 1.112 6.488 2.781c1.668 1.668 2.78 3.892 2.78 6.487s-1.112 4.819-2.78 6.488c-1.668 1.668-3.893 2.78-6.488 2.78s-4.819-1.112-6.487-2.78c-1.668-1.669-2.78-3.893-2.78-6.488s1.112-4.819 2.78-6.487m-41.52 12.975c-1.668 1.668-3.893 2.78-6.488 2.78s-4.819-1.112-6.487-2.78c-1.854-1.669-2.78-3.893-2.78-6.488s1.112-4.819 2.78-6.487 3.892-2.781 6.487-2.781 4.82 1.112 6.488 2.781c1.668 1.668 2.78 3.892 2.78 6.487-.185 2.595-1.112 4.819-2.78 6.488"/></svg>
